X: 1
T:Ger the Rigger
R:Polka
O:Ireland
M:2/4
K:D
e2A2 e2A2|efed c2A2|d4 defg|a2e2 f2e2|\
e2A2 e2A2|efed c2A2|d2fd c2ec|BABc A4:|
|:a2e2 fece|a2e2 fece|d4 defg|a2e2 f2e2|\
a2e2 fece|a2e2 fecA|d2fd c2ec|BABc A4:|
